X:1
T:Angels We Have Heard on High
T:Angels We Have Heard on High
T:Edward Shippen Barnes (1887-1958)
T:Traditional French Carol
T:Public Domain Courtesy of the Cyber Hymnal™
C:Edward Shippen Barnes (1887-1958)
Z:Public Domain
Z:Courtesy of the Cyber Hymnal™
%%score ( 1 2 ) ( 3 4 )
L:1/8
Q:1/4=115
M:4/4
K:F
V:1 treble 
V:2 treble 
V:3 bass 
V:4 bass 
V:1
 [FA]2 [FA]2 [FA]2 [Fc]2 | c3 z B [FA]4 | [FA]2 [EG]2 [FA]2 [Fc]2 | A3 z G F4 | %4
w: 1.~An- gels we have|heard on high|Sweet- ly sing- ing|o’er the plains,|
w: 2.~Shep- herds, why this|ju- bi- lee?|Why your joy- ous|strains pro- long?|
w: 3.~Come to Beth- le-|hem and see|Christ Whose birth the|an- gels sing;|
w: 4.~See Him in a|man- ger laid,|Whom the choirs of|an- gels praise;|
 [FA]2 [FA]2 [EA]2 [Fc]2 | c3 z B [FA]4 | [EA]2 [DG]2 [FA]2 [Gc]2 | A3 z G F4 || %8
w: And the moun- tains|in re- ply|E- cho- ing their|joy- ous strains.|
w: What the glad- some|tid- ings be|Which in- spire your|heaven- ly song?|
w: Come, a- dore on|bend- ed knee,|Christ the Lord, the|new- born King.|
w: Mar- y, Jo- seph,|lend your aid,|While our hearts in|love we raise.|
"^Refrain" c4 dcBA | B4 cBAG | A4 BAGF x | G3 C C4 | [CF]2 [EG]2 [FA]2 [FB]2 | [FA]4 [EG]4 | %14
w: ||||||
w: Glor- i- * * *|a, in * * *|ex- cel- * * *|sis De- o!|Glor- i- a, in|ex- cel-|
w: ||||||
w: ||||||
 c4 dcBA | B4 cBAG | A4 BAGF x | G3 C C4 | [CF]2 [EG]2 [FA]2 [FB]2 | ([FA]4 [EG]4) | [CF]8 |] %21
w: |||||||
w: sis De- * * *|o! * * * *||||||
w: |||||||
w: |||||||
V:2
 x8 | (G2 E2) x5 | x8 | (F2 E2) F4 x | x8 | (F2 G2) x5 | x8 | (F2 E2) F4 x || F2 AG F4- | %9
 F2 GF E4- | E2 FE D4 x | C3 C C4 | x8 | x8 | F2 AG F4- | F2 GF E4- | E2 FE D4 x | C3 C C4 | x8 | %19
 x8 | x8 |] %21
V:3
 [F,C]2 [F,C]2 [F,C]2 [F,A,]2 | [E,G,]2 [C,C]2 [F,C]4 x | [F,C]2 [C,C]2 [F,C]2 [A,C]2 | %3
 C2- CB, [F,A,]4 x | [F,C]2 [F,C]2 [A,C]2 [F,A,]2 | [D,A,]2 [E,C]2 [F,C]4 x | %6
 [A,,C]2 [B,,D]2 [D,D]2 [E,C]2 | C3 z B, [F,A,]4 || (A,4 D4-) | [G,D]4 C4- | C4 B,3 z x | %11
 [E,G,]2 [D,F,]2 E,4 | [A,,F,]2 [C,C]2 [F,C]2 [B,,D]2 | [C,C]4 [C,C]4 | ([F,A,]4 D4-) | D4 C4- | %16
 [F,C]4 B,3 z A, | [E,G,]2 [D,F,]2 E,4 | [A,,F,]2 [C,C]2 [F,C]2 [B,,D]2 | (C6 B,2) | [F,A,]8 |] %21
V:4
 x8 | x9 | x8 | x2 C,2 x5 | x8 | x9 | x8 | F,2 C,2 x5 || F,4 D,2 F,2 | x4 C,2 E,2 | %10
 F,4 (B,,2 D,2) A, | x4 (C,2 B,,2) | x8 | x8 | x4 D,2 F,2 | G,4 C,2 E,2 | x4 B,,2 D,2 x | %17
 x4 (C,2 B,,2) | x8 | C,8 | x8 |] %21

